src/images/hackathon/doc.svg

<svg fill="none" height="24" viewBox="0 0 24 24" width="24" xmlns="http://www.w3.org/2000/svg"><g fill="#545454"><path d="m5.25 19.4985v-14.99625l-.0045-.00225h8.2545v3.7485c0 .828.6735 1.5015 1.5015 1.5015h3.7433c.0007.012.0052.02775.0052.039l.006 9.711zm12.5078-11.2485-2.7578-.0015v-2.9955zm1.7827-.27825-3.8407-4.17375c-.4253-.462-1.1858-.798-1.809-.798h-8.6453c-.39737.00139-.77797.16032-1.05833.44194-.28035.28162-.43757.66293-.43717 1.06031v14.99625c-.0004.397.15664.7781.43669 1.0595.28005.2815.66027.4404 1.05731.442h13.512c.3973-.0016.7778-.1607 1.0578-.4425.2801-.2818.437-.6632.4362-1.0605v-9.708c0-.606-.2985-1.37025-.7095-1.81725z"/><path d="m15 12h-6c-.19891 0-.38968.079-.53033.2197-.14065.1406-.21967.3314-.21967.5303s.07902.3897.21967.5303c.14065.1407.33142.2197.53033.2197h6c.1989 0 .3897-.079.5303-.2197.1407-.1406.2197-.3314.2197-.5303s-.079-.3897-.2197-.5303c-.1406-.1407-.3314-.2197-.5303-.2197zm0 3.75h-6c-.19891 0-.38968.079-.53033.2197-.14065.1406-.21967.3314-.21967.5303s.07902.3897.21967.5303c.14065.1407.33142.2197.53033.2197h6c.1989 0 .3897-.079.5303-.2197.1407-.1406.2197-.3314.2197-.5303s-.079-.3897-.2197-.5303c-.1406-.1407-.3314-.2197-.5303-.2197z"/></g></svg>

<svg width="24" height="24" viewBox="0 0 24 24" fill="none" xmlns="http://www.w3.org/2000/svg">
<path d="M5.25 19.4985V4.50225L5.2455 4.5H13.5V8.2485C13.5 9.0765 14.1735 9.75 15.0015 9.75H18.7448C18.7455 9.762 18.75 9.77775 18.75 9.789L18.756 19.5L5.25 19.4985ZM17.7578 8.25L15 8.2485V5.253L17.7578 8.25ZM19.5405 7.97175L15.6998 3.798C15.2745 3.336 14.514 3 13.8908 3H5.2455C4.84813 3.00139 4.46753 3.16032 4.18717 3.44194C3.90682 3.72356 3.7496 4.10487 3.75 4.50225V19.4985C3.7496 19.8955 3.90664 20.2766 4.18669 20.558C4.46674 20.8395 4.84696 20.9984 5.244 21H18.756C19.1533 20.9984 19.5338 20.8393 19.8138 20.5575C20.0939 20.2757 20.2508 19.8943 20.25 19.497V9.789C20.25 9.183 19.9515 8.41875 19.5405 7.97175Z" fill="#545454"/>
<path d="M15 12H9C8.80109 12 8.61032 12.079 8.46967 12.2197C8.32902 12.3603 8.25 12.5511 8.25 12.75C8.25 12.9489 8.32902 13.1397 8.46967 13.2803C8.61032 13.421 8.80109 13.5 9 13.5H15C15.1989 13.5 15.3897 13.421 15.5303 13.2803C15.671 13.1397 15.75 12.9489 15.75 12.75C15.75 12.5511 15.671 12.3603 15.5303 12.2197C15.3897 12.079 15.1989 12 15 12ZM15 15.75H9C8.80109 15.75 8.61032 15.829 8.46967 15.9697C8.32902 16.1103 8.25 16.3011 8.25 16.5C8.25 16.6989 8.32902 16.8897 8.46967 17.0303C8.61032 17.171 8.80109 17.25 9 17.25H15C15.1989 17.25 15.3897 17.171 15.5303 17.0303C15.671 16.8897 15.75 16.6989 15.75 16.5C15.75 16.3011 15.671 16.1103 15.5303 15.9697C15.3897 15.829 15.1989 15.75 15 15.75Z" fill="#545454"/>
</svg>
